site/assets/icons/ip-network.svg

<?xml version="1.0" encoding="UTF-8" standalone="no"?>
<svg
   viewBox="0 0 24 24"
   version="1.1"
   id="svg1"
   sodipodi:docname="ip-network.svg"
   inkscape:version="1.4.3 (0d15f75042, 2025-12-25)"
   xmlns:inkscape="http://www.inkscape.org/namespaces/inkscape"
   xmlns:sodipodi="http://sodipodi.sourceforge.net/DTD/sodipodi-0.dtd"
   xmlns="http://www.w3.org/2000/svg"
   xmlns:svg="http://www.w3.org/2000/svg">
  <defs
     id="defs1">
    <filter
       style="color-interpolation-filters:sRGB;"
       inkscape:label="Drop Shadow"
       id="filter2"
       x="-0.032519409"
       y="-0.032519409"
       width="1.0876217"
       height="1.0876217">
      <feFlood
         result="flood"
         in="SourceGraphic"
         flood-opacity="0.498039"
         flood-color="rgb(0,0,0)"
         id="feFlood1" />
      <feGaussianBlur
         result="blur"
         in="SourceGraphic"
         stdDeviation="0.300000"
         id="feGaussianBlur1" />
      <feOffset
         result="offset"
         in="blur"
         dx="0.500000"
         dy="0.500000"
         id="feOffset1" />
      <feComposite
         result="comp1"
         operator="in"
         in="flood"
         in2="offset"
         id="feComposite1" />
      <feComposite
         result="comp2"
         operator="over"
         in="SourceGraphic"
         in2="comp1"
         id="feComposite2" />
    </filter>
  </defs>
  <sodipodi:namedview
     id="namedview1"
     pagecolor="#c8c8c8"
     bordercolor="#000000"
     borderopacity="0.07843137"
     inkscape:showpageshadow="true"
     inkscape:pageopacity="0.0"
     inkscape:pagecheckerboard="true"
     inkscape:deskcolor="#818181"
     inkscape:zoom="22.627417"
     inkscape:cx="8.0212425"
     inkscape:cy="13.258252"
     inkscape:window-width="2560"
     inkscape:window-height="1368"
     inkscape:window-x="0"
     inkscape:window-y="0"
     inkscape:window-maximized="1"
     inkscape:current-layer="g1"
     showborder="true"
     borderlayer="true"
     labelstyle="default"
     inkscape:antialias-rendering="true"
     inkscape:clip-to-page="false" />
  <g
     id="g1"
     transform="matrix(1.029941,0,0,1.029941,-0.35929174,-0.35929174)">
    <path
       id="path1"
       style="display:inline;fill:#4cae4f;fill-opacity:1;stroke:none;stroke-width:0.4;stroke-dasharray:none;stroke-opacity:1"
       d="m 10.892578,16.427734 v 2.214844 h 2.214844 V 16.427734 Z M 0.9296875,19.75 v 2.212891 h 7.75 V 19.75 Z m 14.3906245,0 v 2.212891 h 7.75 V 19.75 Z" />
    <path
       id="path2"
       style="display:inline;fill:#0091eb;fill-opacity:1;stroke:#4cae4f;stroke-width:0.58255764;stroke-linecap:round;stroke-linejoin:round;stroke-dasharray:none;stroke-opacity:1;paint-order:normal"
       d="M 6.4648438,0.9296875 C 5.2420493,0.92968756 4.25,1.9217369 4.25,3.1445312 V 14.214844 c 1e-7,1.222794 0.9920495,2.21289 2.2148438,2.21289 H 17.535156 c 1.222794,0 2.214844,-0.990096 2.214844,-2.21289 V 3.1445312 c 0,-1.2227942 -0.99205,-2.21484359 -2.214844,-2.2148437 z m 0,2.2148437 H 8.6796875 V 14.214844 H 6.4648438 Z m 4.4277342,0 h 4.427734 c 1.222795,1e-7 2.214844,0.9900963 2.214844,2.2128907 v 2.2148437 c 0,1.2227944 -0.992049,2.2128906 -2.214844,2.2128906 h -2.21289 v 4.4296878 h -2.214844 z m 2.214844,2.2128907 v 2.2148437 h 2.21289 V 5.3574219 Z" />
    <path
       id="path4"
       style="display:inline;fill:#0091eb;fill-opacity:0.988235;stroke:none;stroke-width:0.4;stroke-dasharray:none;stroke-opacity:1"
       d="m 9.7851562,18.642578 c -0.611397,0 -1.1054684,0.496025 -1.1054687,1.107422 v 2.212891 c -2e-7,0.611397 0.4940714,1.107421 1.1054687,1.107421 h 4.4296878 c 0.611398,0 1.105468,-0.496023 1.105468,-1.107421 V 19.75 c 1e-6,-0.611397 -0.494071,-1.107422 -1.105468,-1.107422 h -1.107422 -2.214844 z" />
  </g>
</svg>

<?xml version="1.0" encoding="UTF-8" standalone="no"?>
<svg
   viewBox="0 0 24 24"
   version="1.1"
   id="svg1"
   sodipodi:docname="ip-network.svg"
   inkscape:version="1.4.3 (0d15f75042, 2025-12-25)"
   xmlns:inkscape="http://www.inkscape.org/namespaces/inkscape"
   xmlns:sodipodi="http://sodipodi.sourceforge.net/DTD/sodipodi-0.dtd"
   xmlns="http://www.w3.org/2000/svg"
   xmlns:svg="http://www.w3.org/2000/svg">
  <defs
     id="defs1">
    <filter
       style="color-interpolation-filters:sRGB;"
       inkscape:label="Drop Shadow"
       id="filter2"
       x="-0.032519409"
       y="-0.032519409"
       width="1.0876217"
       height="1.0876217">
      <feFlood
         result="flood"
         in="SourceGraphic"
         flood-opacity="0.498039"
         flood-color="rgb(0,0,0)"
         id="feFlood1" />
      <feGaussianBlur
         result="blur"
         in="SourceGraphic"
         stdDeviation="0.300000"
         id="feGaussianBlur1" />
      <feOffset
         result="offset"
         in="blur"
         dx="0.500000"
         dy="0.500000"
         id="feOffset1" />
      <feComposite
         result="comp1"
         operator="in"
         in="flood"
         in2="offset"
         id="feComposite1" />
      <feComposite
         result="comp2"
         operator="over"
         in="SourceGraphic"
         in2="comp1"
         id="feComposite2" />
    </filter>
  </defs>
  <sodipodi:namedview
     id="namedview1"
     pagecolor="#c8c8c8"
     bordercolor="#000000"
     borderopacity="0.07843137"
     inkscape:showpageshadow="true"
     inkscape:pageopacity="0.0"
     inkscape:pagecheckerboard="true"
     inkscape:deskcolor="#818181"
     inkscape:zoom="22.627417"
     inkscape:cx="8.0212425"
     inkscape:cy="13.258252"
     inkscape:window-width="2560"
     inkscape:window-height="1368"
     inkscape:window-x="0"
     inkscape:window-y="0"
     inkscape:window-maximized="1"
     inkscape:current-layer="svg1"
     showborder="true"
     borderlayer="true"
     labelstyle="default"
     inkscape:antialias-rendering="true"
     inkscape:clip-to-page="false" />
  <g
     id="g1"
     style="filter:url(#filter2)">
    <path
       id="path1"
       style="display:inline;fill:#4cae4f;fill-opacity:1;stroke-width:0.4;stroke:none;stroke-opacity:1;stroke-dasharray:none"
       d="m 10.892578,16.427734 v 2.214844 h 2.214844 V 16.427734 Z M 0.9296875,19.75 v 2.212891 h 7.75 V 19.75 Z m 14.3906245,0 v 2.212891 h 7.75 V 19.75 Z" />
    <path
       id="path2"
       style="display:inline;fill:#0091eb;fill-opacity:1;stroke-width:0.4;stroke:none;stroke-opacity:1;stroke-dasharray:none;stroke-linejoin:round;paint-order:normal;stroke-linecap:round"
       d="M 6.4648438 0.9296875 C 5.2420493 0.92968756 4.25 1.9217369 4.25 3.1445312 L 4.25 14.214844 C 4.2500001 15.437638 5.2420495 16.427734 6.4648438 16.427734 L 17.535156 16.427734 C 18.75795 16.427734 19.75 15.437638 19.75 14.214844 L 19.75 3.1445312 C 19.75 1.921737 18.75795 0.92968761 17.535156 0.9296875 L 6.4648438 0.9296875 z M 6.4648438 3.1445312 L 8.6796875 3.1445312 L 8.6796875 14.214844 L 6.4648438 14.214844 L 6.4648438 3.1445312 z M 10.892578 3.1445312 L 15.320312 3.1445312 C 16.543107 3.1445313 17.535156 4.1346275 17.535156 5.3574219 L 17.535156 7.5722656 C 17.535156 8.79506 16.543107 9.7851562 15.320312 9.7851562 L 13.107422 9.7851562 L 13.107422 14.214844 L 10.892578 14.214844 L 10.892578 3.1445312 z M 13.107422 5.3574219 L 13.107422 7.5722656 L 15.320312 7.5722656 L 15.320312 5.3574219 L 13.107422 5.3574219 z " />
    <path
       id="path4"
       style="display:inline;fill:#0091eb;fill-opacity:0.98823529;stroke-width:0.4;stroke:none;stroke-opacity:1;stroke-dasharray:none"
       d="M 9.7851562 18.642578 C 9.1737592 18.642578 8.6796878 19.138603 8.6796875 19.75 L 8.6796875 21.962891 C 8.6796873 22.574288 9.1737589 23.070312 9.7851562 23.070312 L 14.214844 23.070312 C 14.826242 23.070312 15.320312 22.574289 15.320312 21.962891 L 15.320312 19.75 C 15.320313 19.138603 14.826241 18.642578 14.214844 18.642578 L 13.107422 18.642578 L 10.892578 18.642578 L 9.7851562 18.642578 z " />
  </g>
</svg>
